X: 10972
Q: "Moderato"
M: 2/4
L: 1/16
K: Gm
|:\
{A}B2G2G2G2 | (D2G2)G2G2 | B2G2G2B2 | d4 (dedc) |\
|:\
(b3g) (a3^f) | g3d =f3c | A2F2F2A2 | c4 (dc.B).A |]


